images/menu.svg

<svg fill="none" height="28" viewBox="0 0 28 28" width="28" xmlns="http://www.w3.org/2000/svg"><path d="m3.72852 20.2368h19.85548c.2845 0 .5241-.1011.7187-.3032.2022-.2096.3033-.4567.3033-.7412s-.1011-.5278-.3033-.73c-.1946-.2021-.4342-.3032-.7187-.3032h-19.85548c-.28451 0-.52784.1048-.72998.3144-.19467.2022-.292.4418-.292.7188 0 .2845.09733.5316.292.7412.20214.2021.44547.3032.72998.3032zm0-4.8628h19.85548c.2845 0 .5241-.1011.7187-.3032.2022-.2021.3033-.4455.3033-.73 0-.292-.1011-.5353-.3033-.73-.1946-.2021-.4342-.3032-.7187-.3032h-19.85548c-.28451 0-.52784.1011-.72998.3032-.19467.2022-.292.4455-.292.73s.09733.5279.292.73c.20214.2021.44547.3032.72998.3032zm0-4.8403h19.85548c.2845 0 .5241-.1011.7187-.3032.2022-.2097.3033-.45674.3033-.74124 0-.28451-.1011-.52783-.3033-.72998-.1946-.20215-.4342-.30323-.7187-.30323h-19.85548c-.28451 0-.52784.10482-.72998.31446-.19467.20215-.292.44173-.292.71875s.09733.52034.292.72994c.20214.2097.44547.3145.72998.3145z" fill="#fff"/></svg>

<svg width="28" height="28" viewBox="0 0 28 28" fill="none" xmlns="http://www.w3.org/2000/svg">
<path d="M3.72852 20.2368H23.584C23.8685 20.2368 24.1081 20.1357 24.3027 19.9336C24.5049 19.724 24.606 19.4769 24.606 19.1924C24.606 18.9079 24.5049 18.6646 24.3027 18.4624C24.1081 18.2603 23.8685 18.1592 23.584 18.1592H3.72852C3.44401 18.1592 3.20068 18.264 2.99854 18.4736C2.80387 18.6758 2.70654 18.9154 2.70654 19.1924C2.70654 19.4769 2.80387 19.724 2.99854 19.9336C3.20068 20.1357 3.44401 20.2368 3.72852 20.2368ZM3.72852 15.374H23.584C23.8685 15.374 24.1081 15.2729 24.3027 15.0708C24.5049 14.8687 24.606 14.6253 24.606 14.3408C24.606 14.0488 24.5049 13.8055 24.3027 13.6108C24.1081 13.4087 23.8685 13.3076 23.584 13.3076H3.72852C3.44401 13.3076 3.20068 13.4087 2.99854 13.6108C2.80387 13.813 2.70654 14.0563 2.70654 14.3408C2.70654 14.6253 2.80387 14.8687 2.99854 15.0708C3.20068 15.2729 3.44401 15.374 3.72852 15.374ZM3.72852 10.5337H23.584C23.8685 10.5337 24.1081 10.4326 24.3027 10.2305C24.5049 10.0208 24.606 9.77376 24.606 9.48926C24.606 9.20475 24.5049 8.96143 24.3027 8.75928C24.1081 8.55713 23.8685 8.45605 23.584 8.45605H3.72852C3.44401 8.45605 3.20068 8.56087 2.99854 8.77051C2.80387 8.97266 2.70654 9.21224 2.70654 9.48926C2.70654 9.76628 2.80387 10.0096 2.99854 10.2192C3.20068 10.4289 3.44401 10.5337 3.72852 10.5337Z" fill="white"/>
</svg>
